!!!!SEGMENT: pl-wnifc--6730-n--001-019_sowinski-wojciech--chants-religieux-de-la-pologne-op-93-la-pelerine-de-czenstochowa-amour-des-cieux.krn
!!!cenid: 18xx:4033
!!!COM: Sowiński, Wojciech
!!!COM-rismID: pe30008543
!!!CDT: ~1803-1880/03/05
!!!CNT: Polish
!!!GTL: Chants religieux de la Pologne op. 93
!!!OTL: La pèlerine de Czenstochowa/Amour des cieux
!!!OMV: 019
!!!PDT: 1830
!!!AGN:
!!!YEC: Copyright 2022 Narodowy Instytut Fryderyka Chopina (https://polishscores.org)
!!!YEM: License CC-BY-4.0 (https://creativecommons.org/licenses/by/4.0)
!!!SMS-siglum: PL-Wnifc
!!!SMS-shelfmark: 6730/n
!!!SMS-shelfwork: 001-019 G
!!!SMS-variant:
!!!SMS-altvar:
!!!NIFC-rismSourceID: 1001138221
!!!NIFC-rismChildID: 1001138242
!!!NIFC-islandoraID: nifc:213350
!!!URL-pdf-islandora: https://repozytorium.nifc.pl/islandora/object/nifc%3A213350/datastream/PDF/view
!!!URL-scan: https://polish.musicsources.pl/pl/lokalizacje/galeria/druki-muzyczne/16913 @EN{Scan on Polish Music Sources Website} @PL{Skany w portalu Dziedzictwo Muzyki Polskiej w otwartym dostępie}
!!!IIIF:
!!!ONB-nifc: UWAGA: str. 73-76
!!!AIN: 1 calto 2 organ 2 soprn
!!!key: B-
**kern	**kern	**dynam	**kern	**text	**dynam	**kern	**text	**dynam	**kern	**text	**dynam
*part5	*part4	*	*part3	*	*	*part2	*	*	*part1	*	*
*staff5	*staff4	*	*staff3	*	*	*staff2	*	*	*staff1	*	*
*I"Organo	*I"ORGUE.	*	*I"CONTRALTO.	*	*	*I"2.d DESSUS.	*	*	*I"1.er DESSUS.	*	*
*	*I'org	*	*I'Contra-A	*	*	*I'S 2	*	*	*I'S 1	*	*
*Iorgan	*Iorgan	*	*Icalto	*	*	*Isoprn	*	*	*Isoprn	*	*
*ICklav	*ICklav	*	*ICvox	*	*	*ICvox	*	*	*ICvox	*	*
*clefF4	*clefG2	*	*clefG2	*	*	*clefG2	*	*	*clefG2	*	*
*k[b-e-]	*k[b-e-]	*	*k[b-e-]	*	*	*k[b-e-]	*	*	*k[b-e-]	*	*
*B-:	*B-:	*	*B-:	*	*	*B-:	*	*	*B-:	*	*
*M6/8	*M6/8	*	*M6/8	*	*	*M6/8	*	*	*M6/8	*	*
=1	=1	=1	=1	=1	=1	=1	=1	=1	=1	=1	=1
!	!LO:TX:a:B:t=Quasi lento.	!	!	!	!	!	!	!	!LO:TX:a:B:t=Lento	!	!
4.B-\ 4.d	(8b-\L	p	2.r	.	.	2.r	.	.	2.r	.	.
.	8a\	.	.	.	.	.	.	.	.	.	.
.	8b-\J)	.	.	.	.	.	.	.	.	.	.
4.B-\ 4.d	4f/	.	.	.	.	.	.	.	.	.	.
.	8f#X/	.	.	.	.	.	.	.	.	.	.
=2	=2	=2	=2	=2	=2	=2	=2	=2	=2	=2	=2
*	*	*above	*	*	*	*	*	*	*	*	*
4.E-\ 4.e-	4g\	<	2.r	.	.	2.r	.	.	2.r	.	.
.	8b-\	.	.	.	.	.	.	.	.	.	.
4F\ 4c	4a\	.	.	.	.	.	.	.	.	.	.
8A\	8e-\ 8f 8cc	[[	.	.	.	.	.	.	.	.	.
=3	=3	=3	=3	=3	=3	=3	=3	=3	=3	=3	=3
4B-\	4d\ 4f 4b-	.	2.r	.	.	2.r	.	.	2.r	.	.
8r	8r	.	.	.	.	.	.	.	.	.	.
8B-\L	4d\ 4f 4b-	.	.	.	.	.	.	.	.	.	.
8F\	.	.	.	.	.	.	.	.	.	.	.
8D\J	8r	.	.	.	.	.	.	.	.	.	.
=4	=4	=4	=4	=4	=4	=4	=4	=4	=4	=4	=4
2BB-\	2d\ 2f 2b-	.	2.r	.	.	2.r	.	.	2.r	.	.
4r	4r	.	.	.	.	.	.	.	.	.	.
=5	=5	=5	=5	=5	=5	=5	=5	=5	=5	=5	=5
!	!	!	!	!	!LO:DY:a	!	!	!LO:DY:a	!	!	!LO:DY:a
*	*	*below	*	*	*	*	*	*	*	*	*
4.BB-\	(8d\L 8b-	p	8d/	A-	p	8f/	A-	p	8b-\	A-	p
.	8f\ 8a	.	8d/	-mour	.	8f/	-mour	.	8a\	-mour	.
.	8d\J) 8b-	.	8d/	des	.	8f/	des	.	8b-\	des	.
4.B-\	4d/ 4f	.	4.d/	Cieux	.	4.f/	Cieux	.	4.f/	Cieux	.
.	8d/ 8f	.	.	.	.	.	.	.	.	.	.
!LO:LB:g=original	!LO:LB:g=original	!	!LO:LB:g=original	!	!	!LO:LB:g=original	!	!	!LO:LB:g=original	!	!
=6	=6	=6	=6	=6	=6	=6	=6	=6	=6	=6	=6
4.E-^\	8e-/L 8g	.	8e-/	Vier-	.	8e-/	Vier-	.	8g/	Vier-	.
.	8B-/	.	8e-/	-ge	.	8e-/	-ge	.	8e-/	-ge	.
.	8e-/J 8g	.	8e-/	di-	.	8e-/	di-	.	8g/	di-	.
8B-\L	4d/ 4f	.	4B-/	-vi-	.	4d/	-vi-	.	4f/	-vi-	.
8F\	.	.	.	.	.	.	.	.	.	.	.
8D\J	8f/	.	8B-/	-ne	.	8d/	-ne	.	8f/	-ne	.
=7	=7	=7	=7	=7	=7	=7	=7	=7	=7	=7	=7
*	*^	*	*	*	*	*	*	*	*	*	*
!	!	!	!	!	!	!LO:DY:a	!	!	!	!	!	!LO:DY:a
4.BB-\	(8b-/L	4.f\	<	8B-/	Vous	<	8d/	Vous	.	8b-\	Vous	<
.	8a/	.	.	8c/	qui	.	8e-/	qui	.	8a\	qui	.
.	8b-/J)	.	.	8d/	veil-	.	8f/	veil-	.	8b-\	veil-	.
4AA\	4cc/	4f\	[	4e-/	-lez	[	4a/	-lez	.	4cc\	-lez	[
8C\	8f/	8ryy	.	8f/	tou-	.	8f/	tou-	.	8f/	tou-	.
*	*v	*v	*	*	*	*	*	*	*	*	*	*
=8	=8	=8	=8	=8	=8	=8	=8	=8	=8	=8	=8
(8F\L	(4f\ 4ee-	.	4f^>/	-jours	.	4cc^\	-jours	.	4ee-^\	-jours	.
8A\	.	.	.	.	.	.	.	.	.	.	.
8B-\J	8f\ 8dd	.	8f/	sur	.	8b-\	sur	.	8dd\	sur	.
4A\)	8f\L) 8cc	.	4f/	nous	.	4a\	nous	.	4cc\	nous	.
.	8f\	.	.	.	.	.	.	.	.	.	.
8F\	8f\J	.	8r	.	.	8r	.	.	8r	.	.
=9	=9	=9	=9	=9	=9	=9	=9	=9	=9	=9	=9
*	*^	*	*	*	*	*	*	*	*	*	*
!	!	!	!	!	!	!LO:DY:a	!	!	!LO:DY:a	!	!	!LO:DY:a
8FF\L 8F	8ee-/L	4.f\	f	8f/	Gar-	f	8cc\	Gar-	f	8ee-\	Gar-	f
8GG\ 8G	8dd/	.	.	8f/	-dez	.	8b-\	-dez	.	8dd\	-dez	.
8AA\J 8A	8cc/J	.	.	8f/	la	.	8a\	la	.	8cc\	la	.
4BB-\ 4B-	4dd/	4f\	.	4B-/	pau-	.	4f/	pau-	.	4dd\	pau-	.
8DD/ 8D	8b-/	8f\	.	8d/	-vre	.	8f/	-vre	.	8b-\	-vre	.
!LO:PB:g=original	!LO:PB:g=original	!LO:PB:g=original	!	!LO:PB:g=original	!	!	!LO:PB:g=original	!	!	!LO:PB:g=original	!	!
=10	=10	=10	=10	=10	=10	=10	=10	=10	=10	=10	=10	=10
!	!	!	!	!	!	!LO:DY:a	!	!	!LO:DY:a	!	!	!LO:DY:a
4CC/ 4C	8a/L	8f\L	<	4c/	pé-	<	(8f/L	pé-	<	(8a/L	pé-	<
.	8b-/	8g\	.	.	.	.	8g/J)	.	.	8b-/J)	.	.
!	!	!	!	!	!	!LO:DY:a	!	!	!LO:DY:a	!	!	!LO:DY:a
8C\	8g/J	8en\J	.	8c/	-le-	[ >	8en/	-le-	[ >	8g/	-le-	[ >
8C\L	4g/	4B-/	[ >	4c/	-ri-	.	4e/	-ri-	.	4g/	-ri-	.
16D\L	.	.	.	.	.	.	.	.	.	.	.	.
16En\J	.	.	.	.	.	.	.	.	.	.	.	.
8F\J	8A/ 8f	8ryy	.	8f/	-ne	]	8f/	-ne	]	8f/	-ne	]
=11	=11	=11	=11	=11	=11	=11	=11	=11	=11	=11	=11	=11
!	!	!	!	!	!	!LO:DY:a	!	!	!LO:DY:a	!	!	!LO:DY:a
8FF/L 8F	8f/L	8f\L	<	8f/	Qui	<	8f/	Qui	<	8f/	Qui	<
8EEn/ 8En	8g/	8g\	.	8en/	vient	.	8en/	vient	.	8g/	vient	.
8EE-X/J 8E-X	8a/J	8f\J	.	8e-X/	pri-	.	8f/	pri-	.	8a/	pri-	.
4DD/ 4D	4b-\	4f\	.	4d/	-er	.	4f/	-er	.	4b-/	-er	.
8CC^>/ 8C	8g^\ 8b-	8ryy	[	8c/	à	[	8g/	à	[	8ee-\	à	[
*	*v	*v	*	*	*	*	*	*	*	*	*	*
=12	=12	=12	=12	=12	=12	=12	=12	=12	=12	=12	=12
!	!	!	!	!	!LO:DY:a	!	!	!LO:DY:a	!	!	!LO:DY:a
4FF\ 4F	4f\ 4dd	.	4f/	vos	>	4b-/	vos	>	4dd\	vos	>
8FF\ 8F	8e-\ 8a 8cc	.	8e-/	ge-	.	8a/	ge-	.	8cc\	ge-	.
4BB-\ 4B-	8d\L 8b-	.	4d/	-noux	.	4b-/	-noux	.	4b-\	-noux	.
.	8f\	.	.	.	.	.	.	.	.	.	.
8r	8f\J	.	8r	.	]	8r	.	]	8r	.	]
=13	=13	=13	=13	=13	=13	=13	=13	=13	=13	=13	=13
*	*^	*	*	*	*	*	*	*	*	*	*
!	!	!	!	!	!	!LO:DY:a	!	!	!LO:DY:a	!	!	!LO:DY:a
8FF\L 8F	(8ee-/L	4f\	f	8f/	N`o-	mf	8cc\	N`o-	mf	8ee-\	N`o-	mf
8GG\ 8G	8dd/	.	.	8f/	-ubli-	.	8b-\	-ubli-	.	8dd\	-ubli-	.
8AA\J 8A	8cc/J)	8f\	.	8f/	-ez	.	8a\	-ez	.	8cc\	-ez	.
4BB-\ 4B-	4dd/	4f\	.	4B-/	pas	.	4.f/	pas	.	(4dd\	pas	.
8DD/ 8D	8b-/	8f\	.	8d/	.	.	.	.	.	8b-\)	.	.
!LO:LB:g=original	!LO:LB:g=original	!LO:LB:g=original	!	!LO:LB:g=original	!	!	!LO:LB:g=original	!	!	!LO:LB:g=original	!	!
=14	=14	=14	=14	=14	=14	=14	=14	=14	=14	=14	=14	=14
4CC/ 4C	(8f\L 8a	4.ryy	<	8c/	la	.	8f/	la	.	8a/	la	.
.	8g\ 8b-	.	.	8c/	pé-	.	8g/	pé-	.	8b-/	pé-	.
8CC/ 8C	8en\J) 8g	.	.	8c/	-le-	.	8en/	-le-	.	8g/	-le-	.
8CC/ 8C	4g/	8e\L	[ sf	(>8c/L	-ri-	.	4e^>/	-ri-	.	4g^>/	-ri-	.
8En\L	.	16c\L	.	16d/L	.	.	.	.	.	.	.	.
.	.	16B-\J	.	16en/JJ)	.	.	.	.	.	.	.	.
!	!	!	!	!	!	!LO:DY:a	!	!	!LO:DY:a	!	!	!LO:DY:a
8F\J	8f/	8A\J	.	8f/	-ne	p	8f/	-ne	p	8f/	-ne	p
*	*v	*v	*	*	*	*	*	*	*	*	*	*
=15	=15	=15	=15	=15	=15	=15	=15	=15	=15	=15	=15
!	!	!	!	!	!LO:DY:a	!	!	!LO:DY:a	!	!	!LO:DY:a
8FF\L 8F	8A/L 8f	.	8f/	Qui	f	8f/	Qui	f	8f/	Qui	f
!	!	!LO:HP:t=cres---	!	!	!	!	!	!	!	!	!
8EEn\ 8En	8B-/ 8g	<	8en/	vient	.	8en/	vient	.	8g/	vient	.
!	!	!	!LO:TX:a:i:t=rall.	!	!	!LO:TX:a:i:t=rall.	!	!	!LO:TX:a:i:t=rall.	!	!
8EE-X\J 8E-X	8c/J 8a	.	8e-X/	pri-	.	8f/	pri-	.	8a/	pri-	.
8DD\L 8D	(8B-/L 8b-	.	(8d/L	-er	.	(8f/L	-er	.	(8b-/L	-er	.
8EE-\ 8E-	8g/J)	.	8e-/J)	.	.	8e-X/J)	.	.	8g/J)	.	.
8CC\J 8C	8g\ 8ee-	f	8c^>/	à	.	8g^>/	à	.	8ee-^\	à	.
=16	=16	=16	=16	=16	=16	=16	=16	=16	=16	=16	=16
4FF\ 4F	4f^\ 4b- 4dd	.	4f^/	vos	.	4b-^/	vos	.	4dd^\	vos	.
8FF\ 8F	8e-^\ 8a 8cc	.	8f^/	ge-	.	8a^/	ge-	.	8cc^\	ge-	.
!	!	!	!	!	!LO:DY:a	!	!	!LO:DY:a	!	!	!LO:DY:a
4.BB-;<\ 4.B-	4.d^;/ 4.b-	.	4.B-^;/	-noux	p	4.b-^;/	-noux	p	4.b-^;\	-noux	p
=17	=17	=17	=17	=17	=17	=17	=17	=17	=17	=17	=17
(8B-\L	(8b-\L	p	2.r	.	.	2.r	.	.	2.r	.	.
!	!	!LO:HP:t=cres---	!	!	!	!	!	!	!	!	!
8A\	8cc\	<	.	.	.	.	.	.	.	.	.
8A-X\J	8dd\J	.	.	.	.	.	.	.	.	.	.
8G\L	8ee-\L	.	.	.	.	.	.	.	.	.	.
8F\	8ff\	.	.	.	.	.	.	.	.	.	.
8E-\J)	8gg\J)	.	.	.	.	.	.	.	.	.	.
=18	=18	=18	=18	=18	=18	=18	=18	=18	=18	=18	=18
(4F\	(4a\ 4ff	.	2.r	.	.	2.r	.	.	2.r	.	.
!	!	!	!LO:LB:g=original	!	!	!LO:LB:g=original	!	!	!LO:LB:g=original	!	!
8G\	8b-\ 8een	.	.	.	.	.	.	.	.	.	.
4A\	4cc\ 4ee-X	.	.	.	.	.	.	.	.	.	.
8B-\)	8dd\)	.	.	.	.	.	.	.	.	.	.
!LO:LB:g=original	!LO:LB:g=original	!	!	!	!	!	!	!	!	!	!
=19	=19	=19	=19	=19	=19	=19	=19	=19	=19	=19	=19
4E-\ 4e-	4g\ 4b- 4cc	.	2.ryy	.	.	2.ryy	.	.	2.r	.	.
8r	8r	.	.	.	.	.	.	.	.	.	.
4F\ 4f	4a\ 4cc	.	.	.	.	.	.	.	.	.	.
8r;	8r;	.	.	.	.	.	.	.	.	.	.
=20||	=20||	=20||	=20||	=20||	=20||	=20||	=20||	=20||	=20||	=20||	=20||
!	!	!	!	!	!	!	!	!	!LO:TX:a:t=2.me STROPHE Solo.	!	!
4.BB-/	(8d\L 8b-	p	2.ryy	.	.	2.ryy	.	.	(8b-\L	A	.
.	8f\ 8a	.	.	.	.	.	.	.	8a\J)	.	.
.	8d\J) 8b-	.	.	.	.	.	.	.	8b-\	vos	.
4.B-\	4d/ 4f	.	.	.	.	.	.	.	4f/	pieds	.
.	8d/ 8f	.	.	.	.	.	.	.	8f/	j`ap-	.
=21	=21	=21	=21	=21	=21	=21	=21	=21	=21	=21	=21
4.E-^\	8e-/L 8g	.	2.ryy	.	.	2.ryy	.	.	8g/	-porte	.
.	8B-/	.	.	.	.	.	.	.	8e-/	ô	.
.	8e-/J 8g	.	.	.	.	.	.	.	8g/	Ma-	.
8B-\L	4d/ 4f	.	.	.	.	.	.	.	4f/	-ri-	.
8F\	.	.	.	.	.	.	.	.	.	.	.
8D\J	8f/	.	.	.	.	.	.	.	8f/	-e	.
=22	=22	=22	=22	=22	=22	=22	=22	=22	=22	=22	=22
*	*^	*	*	*	*	*	*	*	*	*	*
4.BB-\	(8b-/L	4.f\	<	2.ryy	.	.	2.ryy	.	.	8b-\	Un	.
.	8a/	.	.	.	.	.	.	.	.	8a\	lys	.
.	8b-/J)	.	.	.	.	.	.	.	.	8b-\	sym-	.
4AA\	4cc/	4f\	[	.	.	.	.	.	.	4cc\	-bo-	.
8C\	8f/	8ryy	.	.	.	.	.	.	.	8f/	-le	.
!LO:LB:g=original	!LO:LB:g=original	!LO:LB:g=original	!	!LO:LB:g=original	!	!	!LO:LB:g=original	!	!	!LO:LB:g=original	!	!
*	*v	*v	*	*	*	*	*	*	*	*	*	*
=23	=23	=23	=23	=23	=23	=23	=23	=23	=23	=23	=23
(8F\L	(4f\ 4ee-	.	2.ryy	.	.	2.ryy	.	.	4ee-^\	de	.
8A\	.	.	.	.	.	.	.	.	.	.	.
8B-\J	8f\ 8dd	.	.	.	.	.	.	.	8dd\	can-	.
4A\)	8f\L) 8cc	.	.	.	.	.	.	.	4cc\	-deur	.
.	8f\	.	.	.	.	.	.	.	.	.	.
8F\	8f\J	.	.	.	.	.	.	.	8r	.	.
=24	=24	=24	=24	=24	=24	=24	=24	=24	=24	=24	=24
*	*^	*	*	*	*	*	*	*	*	*	*
!	!	!	!	!	!	!	!	!	!	!	!	!LO:DY:a
8FF\L 8F	8ee-/L	4.f\	f	2.ryy	.	.	2.ryy	.	.	8ee-\	Mon	mf
8GG\ 8G	8dd/	.	.	.	.	.	.	.	.	8dd\	cha-	.
8AA\J 8A	8cc/J	.	.	.	.	.	.	.	.	8cc\	-pe-	.
4BB-\ 4B-	4dd/	4f\	.	.	.	.	.	.	.	(4dd\	-let	.
8DD/ 8D	8b-/	8f\	.	.	.	.	.	.	.	8b-\)	.	.
=25	=25	=25	=25	=25	=25	=25	=25	=25	=25	=25	=25	=25
!	!	!	!	!	!	!	!	!	!	!	!	!LO:DY:a
4CC/ 4C	8a/L	8f\L	<	2.ryy	.	.	2.ryy	.	.	8a/	ma	<
.	8b-/	8g\	.	.	.	.	.	.	.	8b-/	croix	.
8C\	8g/J	8en\J	.	.	.	.	.	.	.	8g/	bé-	.
!	!	!	!	!	!	!	!	!	!	!	!	!LO:DY:a
8C\L	4g/	4B-/	[ >	.	.	.	.	.	.	4g/	-nie	[ >
16D\L	.	.	.	.	.	.	.	.	.	.	.	.
16En\J	.	.	.	.	.	.	.	.	.	.	.	.
8F\J	8A/ 8f	8ryy	.	.	.	.	.	.	.	8f/	A	]]
=26	=26	=26	=26	=26	=26	=26	=26	=26	=26	=26	=26	=26
8FF\L 8F	8f/L	8f\L	] <	2.ryy	.	.	2.ryy	.	.	8f/	vec	.
8EEn\ 8En	8g/	8g\	.	.	.	.	.	.	.	8g/	les	.
8EE-X\J 8E-X	8a/J	8f\J	.	.	.	.	.	.	.	8a/	sou-	.
4DD/ 4D	4b-\	4f\	[	.	.	.	.	.	.	(4b-\	-pirs	.
8CC/ 8C	8g^<\ 8ee-	8ryy	.	.	.	.	.	.	.	8ee-^\)	.	.
!LO:LB:g=original	!LO:LB:g=original	!LO:LB:g=original	!	!LO:LB:g=original	!	!	!LO:LB:g=original	!	!	!LO:LB:g=original	!	!
*	*v	*v	*	*	*	*	*	*	*	*	*	*
=27	=27	=27	=27	=27	=27	=27	=27	=27	=27	=27	=27
!	!	!	!	!	!	!	!	!	!	!	!LO:DY:a
4FF\ 4F	4f\ 4dd	.	2.r	.	.	2.r	.	.	4dd\	de	>
8FF\ 8F	8e-\ 8a 8cc	.	.	.	.	.	.	.	8cc\	mon	.
!	!	!	!	!	!	!	!	!	!	!	!LO:DY:a
4BB-\ 4B-	8d\L 8b-	.	.	.	.	.	.	.	4b-\	coeur	] p
.	8f\	.	.	.	.	.	.	.	.	.	.
8r	8f\J	.	.	.	.	.	.	.	8r	.	.
=28	=28	=28	=28	=28	=28	=28	=28	=28	=28	=28	=28
*	*^	*	*	*	*	*	*	*	*	*	*
!	!	!	!	!	!	!LO:DY:a	!	!	!LO:DY:a	!	!	!LO:DY:a
8FF\L 8F	(8ee-/L	4f\	f	8f/	Mon	f	8a\	Mon	f	8ee-\	Mon	f
8GG\ 8G	8dd/	.	.	8g/	cha-	.	8b-\	cha-	.	8dd\	cha-	.
8AA\J 8A	8cc/J)	8f\	.	8a/	-pe-	.	8cc\	-pe-	.	8cc\	-pe-	.
4BB-\ 4B-	4dd/	4f\	.	(4b-/	-let	.	4b-\	-let	.	(4dd\	-let	.
8DD/ 8D	8b-/	8f\	.	8d/)	.	.	8r	.	.	8b-\)	.	.
=29	=29	=29	=29	=29	=29	=29	=29	=29	=29	=29	=29	=29
4CC/ 4C	(8f\L 8a	4.ryy	<	8c/	ma	.	8f/	ma	.	8a/	ma	.
.	8g\ 8b-	.	.	8c/	croix	.	8g/	croix	.	8b-/	croix	.
8CC/ 8C	8en\J) 8g	.	.	8c/	bé-	.	8en/	bé-	.	8g/	bé-	.
8CC/ 8C	4g/	8e\L	[ sf	4c/	-nie	.	4e^>/	-nie	.	4g^>/	-nie	.
8En\L	.	16c\L	.	.	.	.	.	.	.	.	.	.
.	.	16B-\J	.	.	.	.	.	.	.	.	.	.
8F\J	8f/	8A\J	.	8f/	A-	.	8f/	A-	.	8f/	A-	.
*	*v	*v	*	*	*	*	*	*	*	*	*	*
=30	=30	=30	=30	=30	=30	=30	=30	=30	=30	=30	=30
!	!	!	!	!	!LO:DY:a	!	!	!LO:DY:a	!	!	!LO:DY:a
8FF\L 8F	8A/L 8f	.	8f/	-vec	<	8f/	-vec	<	8f/	-vec	<
!	!	!LO:HP:t=cres---	!	!	!	!	!	!	!	!	!
8EEn\ 8En	8B-/ 8g	<	8en/	les	.	8en/	les	.	8g/	les	.
8EE-X\J 8E-X	8c/J 8a	.	8e-X/	sou-	.	8f/	sou-	.	8a/	sou-	.
8DD\L 8D	(8B-/L 8b-	.	(8d/L	-pirs	.	(8f/L	-pirs	.	(8b-/L	-pirs	.
8EE-\ 8E-	8g/J)	.	8e-/J)	.	.	8g/J)	.	.	8g/J)	.	.
8CC\J 8C	8g\ 8ee-	f	8c^>/	de	[	8g^>/	de	[	8ee-^\	de	[
!LO:LB:g=original	!LO:LB:g=original	!	!LO:LB:g=original	!	!	!LO:LB:g=original	!	!	!LO:LB:g=original	!	!
=31	=31	=31	=31	=31	=31	=31	=31	=31	=31	=31	=31
4FF\ 4F	4f^<\ 4b- 4dd	.	(4f^>/	mon	.	(4b-^\	mon	.	(4dd^\	mon	.
8FF\ 8F	8e-^<\ 8a 8cc	.	8e-/)	.	.	8a\)	.	.	8cc\)	.	.
4BB-\ 4B-	4d^/ 4b-	.	4d/	coeur	.	4b-\	coeur	.	4b-\	coeur	.
8r	8f/	.	8r	.	.	8r	.	.	8r	.	.
=32	=32	=32	=32	=32	=32	=32	=32	=32	=32	=32	=32
!	!	!LO:HP:t=cres.	!	!	!	!	!	!	!	!	!
4F\	(8ee-\L	<	2.r	.	.	2.r	.	.	2.r	.	.
.	8dd\	.	.	.	.	.	.	.	.	.	.
8F#X\	8cc\J	.	.	.	.	.	.	.	.	.	.
4G\	8b-\L	.	.	.	.	.	.	.	.	.	.
.	8a\	.	.	.	.	.	.	.	.	.	.
8En\	8g\J)	.	.	.	.	.	.	.	.	.	.
=33	=33	=33	=33	=33	=33	=33	=33	=33	=33	=33	=33
4Fn\	8f\L	.	2.r	.	.	2.r	.	.	2.r	.	.
.	8b-\	.	.	.	.	.	.	.	.	.	.
8r	8dd\J	.	.	.	.	.	.	.	.	.	.
4F\	8cc\L	>	.	.	.	.	.	.	.	.	.
.	8b-\	.	.	.	.	.	.	.	.	.	.
8r	8a\J	]]	.	.	.	.	.	.	.	.	.
=34	=34	=34	=34	=34	=34	=34	=34	=34	=34	=34	=34
8B-\L	8b-\L	p	2.r	.	.	2.r	.	.	2.r	.	.
8F\	8dd\	.	.	.	.	.	.	.	.	.	.
8D\J	8ff\J	.	.	.	.	.	.	.	.	.	.
4.BB-;\	4.bb-;\	.	.	.	.	.	.	.	.	.	.
!LO:PB:g=original	!LO:PB:g=original	!	!LO:PB:g=original	!	!	!LO:PB:g=original	!	!	!LO:PB:g=original	!	!
=35||	=35||	=35||	=35||	=35||	=35||	=35||	=35||	=35||	=35||	=35||	=35||
!	!	!	!	!	!LO:DY:a	!	!	!LO:DY:a	!LO:TX:a:t=3.me STROPHE.	!	!LO:DY:a
4.BB-/	(8d\L 8b-	p	8d/	Bien-	p	8f/	Bien-	p	8b-\	Bien-	p
.	8f\ 8a	.	8d/	-tôt	.	8f/	-tôt	.	8a\	-tôt	.
.	8d\J) 8b-	.	8d/	sous	.	8f/	sous	.	8b-\	sous	.
4.B-\	4d/ 4f	.	4d/	cet-	.	4f/	cet-	.	4f/	cet-	.
.	8d/ 8f	.	8d/	-te	.	8f/	-te	.	8f/	-te	.
=36	=36	=36	=36	=36	=36	=36	=36	=36	=36	=36	=36
4.E-^\	8e-/L 8g	.	4e-/	voute	.	4e-/	voute	.	(8g/L	voute	.
.	8B-/	.	.	.	.	.	.	.	8e-/J)	.	.
.	8e-/J 8g	.	8e-/	au-	.	8e-/	au-	.	8g/	au-	.
8B-\L	4d/ 4f	.	4B-/	-stè-	.	4d/	-stè-	.	4f/	-stè-	.
8F\	.	.	.	.	.	.	.	.	.	.	.
8D\J	8f/	.	8B-/	-re	.	8d/	-re	.	8f/	-re	.
=37	=37	=37	=37	=37	=37	=37	=37	=37	=37	=37	=37
*	*^	*	*	*	*	*	*	*	*	*	*
!	!	!	!	!	!	!LO:DY:a	!	!	!LO:DY:a	!	!	!LO:DY:a
4.BB-\	(8b-/L	4.f\	<	8B-/	Le	<	8d/	Le	<	8b-\	Le	<
.	8a/	.	.	8c/	front	.	8e-/	front	.	8a\	front	.
.	8b-/J)	.	.	8d/	voi-	.	8f/	voi-	.	8b-\	voi-	.
4AA\	4cc/	4f\	[	4e-/	-lé	.	4f/	-lé	.	4cc\	-lé	.
8C\	8f/	8ryy	.	8f/	je	[	8f/	je	[	8f/	je	[
*	*v	*v	*	*	*	*	*	*	*	*	*	*
=38	=38	=38	=38	=38	=38	=38	=38	=38	=38	=38	=38
(8F\L	(4f\ 4ee-	.	4f/	re-	.	4cc\	re-	.	4ee-^\	re-	.
8A\	.	.	.	.	.	.	.	.	.	.	.
8B-\J	8f\ 8dd	.	8f/	-vien-	.	8b-\	-vien-	.	8dd\	-vien-	.
4A\)	8f\L) 8cc	.	4f/	-drai	.	4a\	-drai	.	4cc\	-drai	.
.	8f\	.	.	.	.	.	.	.	.	.	.
8F\	8f\J	.	8r	.	.	8r	.	.	8r	.	.
!LO:LB:g=original	!LO:LB:g=original	!	!LO:LB:g=original	!	!	!LO:LB:g=original	!	!	!LO:LB:g=original	!	!
=39	=39	=39	=39	=39	=39	=39	=39	=39	=39	=39	=39
*	*^	*	*	*	*	*	*	*	*	*	*
8FF\L 8F	8ee-/L	4.f\	f	8f/	Vous	.	8cc\	Vous	.	8ee-\	Vous	.
8GG\ 8G	8dd/	.	.	8f/	con-	.	8b-\	con-	.	8dd\	con-	.
8AA\J 8A	8cc/J	.	.	8f/	-sa-	.	8a\	-sa-	.	8cc\	-sa-	.
4BB-\ 4B-	4dd/	4f\	.	(4B-/	-crer	.	4b-\	-crer	.	(4dd\	-crer	.
8DD/ 8D	8b-/	8f\	.	8d/)	.	.	8r	.	.	8b-\)	.	.
=40	=40	=40	=40	=40	=40	=40	=40	=40	=40	=40	=40	=40
4CC/ 4C	8a/L	8f\L	<	8c/	ma	.	8f/	ma	.	8a\	ma	.
.	8b-/	8g\	.	8c/	vie	.	8g/	vie	.	8b-\	vie	.
8C\	8g/J	8en\J	.	8c/	en-	.	8en/	en-	.	8g/	en-	.
8C\L	4g/	4B-/	[ >	4c^>/	-tiè-	.	4e^>/	-tiè-	.	4g^>/	-tiè-	.
16D\L	.	.	.	.	.	.	.	.	.	.	.	.
16En\J	.	.	.	.	.	.	.	.	.	.	.	.
8F\J	8A/ 8f	8ryy	.	8f/	-re	.	8f/	-re	.	8f/	-re	.
=41	=41	=41	=41	=41	=41	=41	=41	=41	=41	=41	=41	=41
!	!	!	!	!	!	!LO:DY:a	!	!	!	!	!	!LO:DY:a
8FF\L 8F	8f/L	8f\L	] <	8f/	Dans	<	8f/	Dans	.	8f/	Dans	<
8EEn\ 8En	8g/	8g\	.	8en/	le	.	8en/	le	.	8g/	le	.
8EE-X\J 8E-X	8a/J	8f\J	.	8e-X/	mon-	.	8f/	mon-	.	8a/	mon-	.
4DD/ 4D	4b-\	4f\	.	4d/	-de	.	4f/	-de	.	4b-\	-de	.
8CC/ 8C	8g^\ 8ee-	8ryy	[	8c/	j`ai	[	8g^>/	j`ai	.	8ee-^\	j`ai	[
*	*v	*v	*	*	*	*	*	*	*	*	*	*
=42	=42	=42	=42	=42	=42	=42	=42	=42	=42	=42	=42
4FF\ 4F	4f\ 4dd	.	4f/	tant	.	4b-\	tant	.	4dd\	tant	.
8FF\ 8F	8e-\ 8a 8cc	.	8e-/	pleu-	.	8a\	pleu-	.	8cc\	pleu-	.
4BB-\ 4B-	8d\L 8b-	.	4d/	-ré	.	4b-\	-ré	.	4b-\	-ré	.
.	8f\	.	.	.	.	.	.	.	.	.	.
8r	8f\J	.	8r	.	.	8r	.	.	8r	.	.
!LO:LB:g=original	!LO:LB:g=original	!	!LO:LB:g=original	!	!	!LO:LB:g=original	!	!	!LO:LB:g=original	!	!
=43	=43	=43	=43	=43	=43	=43	=43	=43	=43	=43	=43
*	*^	*	*	*	*	*	*	*	*	*	*
!	!	!	!	!	!	!LO:DY:a	!	!	!LO:DY:a	!	!	!LO:DY:a
8FF\L 8F	(8ee-/L	4f\	f	8f/	Vous	f	8cc\	Vous	f	8ee-\	Vous	f
8GG\ 8G	8dd/	.	.	8f/	con-	.	8b-\	con-	.	8dd\	con-	.
8AA\J 8A	8cc/J)	8f\	.	8f/	-sa-	.	8a\	-sa-	.	8cc\	-sa-	.
4BB-\ 4B-	4dd/	4f\	.	(>4B-/	-crer	.	4b-\	-crer	.	(4dd\	-crer	.
8DD/ 8D	8b-/	8f\	.	8d/)	.	.	8r	.	.	8b-\)	.	.
=44	=44	=44	=44	=44	=44	=44	=44	=44	=44	=44	=44	=44
4CC/ 4C	(8f\L 8a	4.ryy	<	8c/	ma	.	8f/	ma	.	8a/	ma	.
.	8g\ 8b-	.	.	8c/	vie	.	8g/	vie	.	8b-/	vie	.
8CC/ 8C	8en\J) 8g	.	.	8c/	en-	.	8en/	en-	.	8g/	en-	.
8CC/ 8C	4g/	8e\L	[ sf	4c^>/	-tiè-	.	4e^>/	-tiè-	.	4g^>/	-tiè-	.
8En\L	.	16c\L	.	.	.	.	.	.	.	.	.	.
.	.	16B-\J	.	.	.	.	.	.	.	.	.	.
8F\J	8f/	8A\J	.	8f/	-re	.	8f/	-re	.	8f/	-re	.
*	*v	*v	*	*	*	*	*	*	*	*	*	*
=45	=45	=45	=45	=45	=45	=45	=45	=45	=45	=45	=45
!	!	!	!	!	!	!	!	!	!	!	!LO:DY:a
8FF\L 8F	8A/L 8f	.	(8f/L	Dans	.	(8f/L	Dans	.	(8f/L	Dans	<
!	!	!LO:HP:t=cres---	!	!	!	!	!	!	!	!	!
8EEn\ 8En	8B-/ 8g	<	8en/J)	.	.	8en/J)	.	.	8g/J)	.	.
8EE-X\J 8E-X	8c/J 8a	.	8e/	le	.	8f/	le	.	8a/	le	.
8DD\L 8D	(8B-/L 8b-	.	8d/	mon-	.	8f/	mon-	.	8b-/	mon-	.
8EEn\ 8En	8g/J)	.	8e/	-de	.	8e/	-de	.	8g/	-de	[
8CC\J 8C	8g\ 8ee-	f	8c^>/	j`ai	.	8g^>/	j`ai	.	8ee-^\	j`ai	.
=46	=46	=46	=46	=46	=46	=46	=46	=46	=46	=46	=46
4FF\ 4F	4f^<\ 4b- 4dd	.	4f^>/	tant	.	4b-^\	tant	.	4dd^\	tant	.
8FF\ 8F	8e-^<\ 8a 8cc	.	8e-^>/	pleu-	.	8a^\	pleu-	.	8cc^\	pleu-	.
4.BB-;<\ 4.B-	4.d^;/ 4.b-	.	4.d;/	-ré	.	4.b-;\	-ré	.	4.b-^;\	-ré	.
==	==	==	==	==	==	==	==	==	==	==	==
*-	*-	*-	*-	*-	*-	*-	*-	*-	*-	*-	*-
!!!RDF**kern: > = above
!!!RDF**kern: < = below
!!!system-decoration: [(s1,s2,s3)][(s4,s5)]
!!!ENC: Filip Voros
!!!END: 2022-08-10
!!!ENC: Julita Ruszuk
!!!END: 2022-09-12
